src/images/exit.svg

<svg width="17" height="20" viewBox="0 0 17 20" fill="none" xmlns="http://www.w3.org/2000/svg">
<path d="M0.5 10C0.5 10.2652 0.605357 10.5196 0.792893 10.7071C0.98043 10.8946 1.23478 11 1.5 11H9.09L6.79 13.29C6.69627 13.383 6.62188 13.4936 6.57111 13.6154C6.52034 13.7373 6.4942 13.868 6.4942 14C6.4942 14.132 6.52034 14.2627 6.57111 14.3846C6.62188 14.5064 6.69627 14.617 6.79 14.71C6.88296 14.8037 6.99356 14.8781 7.11542 14.9289C7.23728 14.9797 7.36799 15.0058 7.5 15.0058C7.63201 15.0058 7.76272 14.9797 7.88458 14.9289C8.00644 14.8781 8.11704 14.8037 8.21 14.71L12.21 10.71C12.301 10.6149 12.3724 10.5028 12.42 10.38C12.52 10.1365 12.52 9.86346 12.42 9.62C12.3724 9.49725 12.301 9.3851 12.21 9.29L8.21 5.29C8.11676 5.19676 8.00607 5.1228 7.88425 5.07234C7.76243 5.02188 7.63186 4.99591 7.5 4.99591C7.36814 4.99591 7.23757 5.02188 7.11575 5.07234C6.99393 5.1228 6.88324 5.19676 6.79 5.29C6.69676 5.38324 6.6228 5.49393 6.57234 5.61575C6.52188 5.73757 6.49591 5.86814 6.49591 6C6.49591 6.13186 6.52188 6.26243 6.57234 6.38425C6.6228 6.50607 6.69676 6.61676 6.79 6.71L9.09 9H1.5C1.23478 9 0.98043 9.10536 0.792893 9.29289C0.605357 9.48043 0.5 9.73478 0.5 10ZM13.5 0H3.5C2.70435 0 1.94129 0.316071 1.37868 0.87868C0.816071 1.44129 0.5 2.20435 0.5 3V6C0.5 6.26522 0.605357 6.51957 0.792893 6.70711C0.98043 6.89464 1.23478 7 1.5 7C1.76522 7 2.01957 6.89464 2.20711 6.70711C2.39464 6.51957 2.5 6.26522 2.5 6V3C2.5 2.73478 2.60536 2.48043 2.79289 2.29289C2.98043 2.10536 3.23478 2 3.5 2H13.5C13.7652 2 14.0196 2.10536 14.2071 2.29289C14.3946 2.48043 14.5 2.73478 14.5 3V17C14.5 17.2652 14.3946 17.5196 14.2071 17.7071C14.0196 17.8946 13.7652 18 13.5 18H3.5C3.23478 18 2.98043 17.8946 2.79289 17.7071C2.60536 17.5196 2.5 17.2652 2.5 17V14C2.5 13.7348 2.39464 13.4804 2.20711 13.2929C2.01957 13.1054 1.76522 13 1.5 13C1.23478 13 0.98043 13.1054 0.792893 13.2929C0.605357 13.4804 0.5 13.7348 0.5 14V17C0.5 17.7956 0.816071 18.5587 1.37868 19.1213C1.94129 19.6839 2.70435 20 3.5 20H13.5C14.2956 20 15.0587 19.6839 15.6213 19.1213C16.1839 18.5587 16.5 17.7956 16.5 17V3C16.5 2.20435 16.1839 1.44129 15.6213 0.87868C15.0587 0.316071 14.2956 0 13.5 0Z" fill="#FF6600"/>
</svg>

<svg width="17" height="20" fill="none" xmlns="http://www.w3.org/2000/svg"><path d="M.5 10a1 1 0 0 0 1 1h7.59l-2.3 2.29a1 1 0 0 0 .325 1.639 1 1 0 0 0 1.095-.219l4-4a1 1 0 0 0 .21-.33 1 1 0 0 0 0-.76 1 1 0 0 0-.21-.33l-4-4a1.004 1.004 0 1 0-1.42 1.42L9.09 9H1.5a1 1 0 0 0-1 1zm13-10h-10a3 3 0 0 0-3 3v3a1 1 0 0 0 2 0V3a1 1 0 0 1 1-1h10a1 1 0 0 1 1 1v14a1 1 0 0 1-1 1h-10a1 1 0 0 1-1-1v-3a1 1 0 1 0-2 0v3a3 3 0 0 0 3 3h10a3 3 0 0 0 3-3V3a3 3 0 0 0-3-3z" fill="#F60"/></svg>
